X:52
T:Pastwn Mawr (the Big Stick)
R:tamed cenol
H:It was sung at wakes in this part of the world.
N:You can also shift it down to e minor as well, ie starting the
N:tune on G and it's more well known there.
D:Fernhill
Z:crm
M:6/4
L:1/4
Q:1/2=240
K:G
B3 ABA|G2A B3|ABA G2G|E2G G2A|B>cB ABA|G2A B3|ABA G2A|B2A G2E:||
G3 G2A|B2c d2c|BAG ABA|G3 G3||
E2G d2B|A3 G3|E2G d2B|ABA G2A|B3 ABA|G3 G3|
e3 d2B|A2B G3|e3 d2B|A2B G2A|B3 ABA|G3 G3||
"variations for second part:"
E2B d2B|G2E G2B|E2B d2B|G2~G G2A|B3 ABA|G2~G G3||
